packages/foundations/assets/icons/functional/images/audio & video/volume_down_24.svg

<svg width="24" height="24" viewBox="0 0 24 24" fill="none" xmlns="http://www.w3.org/2000/svg">
<g clip-path="url(#clip0_184_386)">
<path fill-rule="evenodd" clip-rule="evenodd" d="M13 5C13.563 5 14 5.469 14 6V18C14 18.563 13.562 19 13 19C12.812 19 12.594 18.969 12.437 18.844L8.187 15.969H6.5C6.17122 15.9707 5.84535 15.9072 5.54126 15.7822C5.23717 15.6572 4.96089 15.4731 4.72839 15.2406C4.4959 15.0081 4.31182 14.7318 4.1868 14.4277C4.06177 14.1237 3.99828 13.7978 4 13.469V10.5C4 9.094 5.125 8 6.5 8H8.188L12.438 5.156C12.624 5.063 12.812 5 13 5ZM17 7C17.188 7 17.406 7.063 17.563 7.188C19.125 8.25 20 10.094 20 11.968C20 13.906 19.125 15.75 17.562 16.813C17.3999 16.9345 17.2026 17.0001 17 17C16.437 17 16 16.531 16 16C16 15.687 16.156 15.375 16.438 15.156C17.467 14.437 18 13.25 18 12C18 10.719 17.469 9.531 16.437 8.812C16.3033 8.72277 16.1935 8.60206 16.1173 8.46048C16.0411 8.3189 16.0008 8.16078 16 8C16 7.437 16.469 7 17 7ZM12 7.875L9.062 9.813C8.89985 9.93452 8.70264 10.0001 8.5 10H6.5C6.219 10 6 10.219 6 10.469V13.469C6 13.75 6.219 13.969 6.5 13.969H8.5C8.688 13.969 8.906 14.063 9.063 14.156L12 16.125V7.875Z" fill="#1A1C1F"/>
</g>
<defs>
<clipPath id="clip0_184_386">
<rect width="24" height="24" fill="white"/>
</clipPath>
</defs>
</svg>

<svg xmlns="http://www.w3.org/2000/svg" width="24" height="24" fill="none"><g clip-path="url(#a)"><path fill="#1A1C1F" fill-rule="evenodd" d="M13 5c.563 0 1 .469 1 1v12c0 .563-.438 1-1 1-.188 0-.406-.031-.563-.156l-4.25-2.875H6.5a2.49 2.49 0 0 1-2.5-2.5V10.5C4 9.094 5.125 8 6.5 8h1.688l4.25-2.844C12.624 5.063 12.812 5 13 5m4 2c.188 0 .406.063.563.188C19.125 8.25 20 10.094 20 11.968c0 1.938-.875 3.782-2.438 4.845A.94.94 0 0 1 17 17c-.563 0-1-.469-1-1 0-.313.156-.625.438-.844C17.467 14.437 18 13.25 18 12c0-1.281-.531-2.469-1.563-3.188A.98.98 0 0 1 16 8c0-.563.469-1 1-1m-5 .875L9.062 9.813A.94.94 0 0 1 8.5 10h-2c-.281 0-.5.219-.5.469v3c0 .281.219.5.5.5h2c.188 0 .406.094.563.187L12 16.125z" clip-rule="evenodd"/></g><defs><clipPath id="a"><path fill="#fff" d="M0 0h24v24H0z"/></clipPath></defs></svg>
